X:19069
T:Xiraldilla (CT 384)
R:Xiraldilla
C:Tradicional
S:Música Tradicional Asturiana, (C) Tello & Tito. Asturies, 2001.
S:http://pagina.de/MusTradAst <telloytito@asturies.org>
N:Xiraldilla transcrita en Uviéu.
N:Esta xiraldilla es, ya de antiguo, muy corriente en las romerías que se celebran en el concejo de Uviéu.
O:Uviéu
A:Asturies
Z:Cancioneru de Torner 384
M:2/4
L:1/8
Q:1/4=160
W:Que dame el peine
W:y el escarpidor
W:para peinar el pelo
W:de mi dulce amor.
W:
W:El mi pelo
W:ya está peinado,
W:pero no con los peines
W:que tú me has dado.
W:
W:Hache, y,jota, ka,
W:ele, eme, ene, o,
W:que si tú no lo bailas,
W:solita lo bailo yo.
K:G
B
|d3 e|d>c BB|e3 f|e>d cc|
d3 e|d>c AB|c2 d2|B2 z2|
d3 e|d>c BB|e3 f|e>d cc|
d3 e|d>c AB|c2 d2|B2 Bc|
d2 Bc|d2 dd|ed cB|c2 AB|
c2 AB|cc cc|dc BA|B2 z2||


